icons/package-16.svg

<svg xmlns="http://www.w3.org/2000/svg" width="16" height="16" viewBox="0 0 16 16"><path d="M8.878.392l5.25 3.045c.54.314.872.89.872 1.514v6.098a1.75 1.75 0 01-.872 1.514l-5.25 3.045a1.75 1.75 0 01-1.756 0l-5.25-3.045A1.75 1.75 0 011 11.049V4.951c0-.624.332-1.201.872-1.514L7.122.392a1.75 1.75 0 011.756 0zM7.875 1.69l-4.63 2.685L8 7.133l4.755-2.758-4.63-2.685a.248.248 0 00-.25 0zM2.5 5.677v5.372c0 .09.047.171.125.216l4.625 2.683V8.432zm6.25 8.271l4.625-2.683a.25.25 0 00.125-.216V5.677L8.75 8.432z"/></svg>

<svg xmlns="http://www.w3.org/2000/svg" width="16" height="16" viewBox="0 0 16 16">
  <defs/>
  <path d="M8.878,0.392 L14.128,3.437 C14.668,3.751 15,4.327 15,4.951 L15,11.049 C15,11.673 14.668,12.25 14.128,12.563 L8.878,15.608 C8.335,15.923 7.665,15.923 7.122,15.608 L1.872,12.563 C1.332,12.249 1,11.673 1,11.049 L1,4.951 C1,4.327 1.332,3.75 1.872,3.437 L7.122,0.392 C7.665,0.077 8.335,0.077 8.878,0.392 Z M7.875,1.69 L3.245,4.375 L8,7.133 L12.755,4.375 L8.125,1.69 C8.048,1.645 7.952,1.645 7.875,1.69 Z M2.5,5.677 L2.5,11.049 C2.5,11.139 2.547,11.22 2.625,11.265 L7.25,13.948 L7.25,8.432 Z M8.75,13.948 L13.375,11.265 C13.452,11.22 13.5,11.138 13.5,11.049 L13.5,5.677 L8.75,8.432 Z"/>
</svg>
